content/assets/icon-npm.svg

<svg xmlns="http://www.w3.org/2000/svg" viewBox="0 0 48 48">
  <path fill="#d50000" d="M0 15h48v17H24v3H13v-3H0V15z"/>
  <path fill="#fff" d="M3 29h5v-8h3v8h2V18H3zm13-11v14h5v-3h5V18H16zm8 8h-3v-5h3v5zm5-8v11h5v-8h3v8h3v-8h3v8h2V18z"/>
</svg>

<svg xmlns="http://www.w3.org/2000/svg" viewBox="0 0 48 48" width="250px" height="250px"><path fill="#d50000" d="M0,15h48v17H24v3H13v-3H0V15z"/><path fill="#fff" d="M3 29L8 29 8 21 11 21 11 29 13 29 13 18 3 18zM16 18v14h5v-3h5V18H16zM24 26h-3v-5h3V26zM29 18L29 29 34 29 34 21 37 21 37 29 40 29 40 21 43 21 43 29 45 29 45 18z"/></svg>
